assets/ai/ai-openedition-square.svg

<svg xmlns="http://www.w3.org/2000/svg" width="100%" height="100%" viewBox="-75.52 -43.52 599.04 599.04"><path d="M 48 32 C 21.5 32 0 53.5 0 80 L 0 432 C 0 458.5 21.5 480 48 480 L 214.36523 480 L 204.53906 377.96875 C 193.5077 376.37025 182.50358 373.48188 171.71289 369.13672 C 99.134245 339.91 63.968523 257.38192 93.208984 184.79297 C 115.1213 130.35899 167.02333 96.982844 222.22461 96.021484 C 240.62509 95.701034 259.39051 98.984957 277.53516 106.28906 C 313.75055 120.86458 337.76191 146.37064 351.30273 176.16797 C 351.30273 176.16797 375.53688 234.08679 355.84961 263.99414 C 340.00556 288.08848 290.4536 302.45284 246.48633 286.5332 C 258.08834 277.59193 269.83941 266.33473 275.38086 252.54297 C 286.75597 224.30973 273.99608 190.3546 243.00586 177.86914 C 216.14769 167.0578 183.57226 180.36577 171.36523 210.67188 C 157.23314 245.79413 177.12295 285.83308 221.20703 303.57812 C 272.37269 324.16952 322.47328 311.14782 356.17578 290.33984 C 356.13451 290.43609 356.10165 290.53469 356.06055 290.61719 C 336.12232 340.12588 291.41355 372.18553 241.98047 378.33203 L 232.45312 480 L 400 480 C 426.5 480 448 458.5 448 432 L 448 80 C 448 53.5 426.5 32 400 32 L 48 32 z M 51.332031 340.55859 C 115.35785 341.23578 175.46566 380.45687 199.65625 443.92578 C 199.72166 444.01178 199.75567 444.14131 199.79688 444.26172 C 115.22094 445.44768 54.047744 371.83411 51.332031 340.55859 z M 388.80664 382.04297 C 391.40955 382.00999 394.02859 382.06056 396.66797 382.20312 C 396.61303 382.30964 396.56844 382.43063 396.52734 382.53711 C 369.82038 444.97816 308.19997 481.78655 244.20508 479.91992 C 245.62707 466.00966 308.11655 383.06917 388.80664 382.04297 z"/></svg>

<svg xmlns="http://www.w3.org/2000/svg" width="100%" height="100%" viewBox="-75.52 -43.52 599.04 599.04"><path d="M48 32C21.5 32 0 53.5 0 80v352c0 26.5 21.5 48 48 48h166.365l-9.826-102.031a142.374 142.374 0 01-32.826-8.832C99.134 339.91 63.969 257.382 93.209 184.793c21.912-54.434 73.814-87.81 129.016-88.772 18.4-.32 37.166 2.964 55.31 10.268 36.216 14.576 60.227 40.082 73.768 69.879 0 0 24.234 57.919 4.547 87.826-15.844 24.094-65.396 38.459-109.364 22.54 11.602-8.942 23.353-20.2 28.895-33.991 11.375-28.233-1.385-62.188-32.375-74.674-26.858-10.811-59.434 2.497-71.64 32.803-14.133 35.122 5.757 75.161 49.841 92.906 51.166 20.592 101.266 7.57 134.969-13.238-.041.096-.074.195-.115.277-19.939 49.509-64.647 81.569-114.08 87.715L232.452 480H400c26.5 0 48-21.5 48-48V80c0-26.5-21.5-48-48-48H48zm3.332 308.559c64.026.677 124.134 39.898 148.324 103.367.066.086.1.215.14.336-84.575 1.186-145.748-72.428-148.464-103.703zm337.475 41.484c2.603-.033 5.222.018 7.861.16-.055.107-.1.228-.14.334-26.708 62.441-88.328 99.25-152.323 97.383 1.422-13.91 63.912-96.85 144.602-97.877z"/></svg>
